X: 32
T:Paddy Stack's Fancy Jig (#142)
M:6/8
L:1/8
S:Rice-Walsh manuscript
K:G
"tr"E3 BEB|EBE AFD|"tr"E3 BEB|edB AFD|
E3 BEB|EBE AFD|EBE BEB|edB AFD:|
eee fee|aee fee|efe fef|a2 g fed|
eee fee|bee fee|e/2f/2ge fde|dcB AFD||
eee fee|bee fee|bee fef|a2 f def|
gba/2g/2 fag/2f/2|egf/2e/2 def/2g/2|egf/2e/2 d2 A|BAG FED||
%
% This fine jig, remarkable for originality of composition, and the
% technique essential to giving it adequate expression, is a
% masterpiece of execution at the hands of the amiable Patrick
% Stack who obligingly scored it on  paper, after charming us
% with it on his fiddle - Coming from Jerry Breen the much admired
% blind fiddler of North Kerry, it was preserved in the Rice-Walsh
% manuscript and is now recorded for print for the first time.

